X: 8111
T: Continental, The
R: polka
M: 2/4
K: Amajor
e>f ed|cd ec|Bc dB|cd ec|e>f ed|cd ec|Bc dB|A2 A2:|
B>c de|ge de|ce ae|ce ae|B>c de|ge de|ce dB|A2 A2:|

